X:1
T:Toulon, 10.10.10.10
T:Genevan Psalter, 1551
T:Toulon, 10.10.10.10
T:Public Domain
C:Genevan Psalter, 1551
Z:Public Domain
%%score ( 1 2 ) ( 3 4 )
L:1/8
M:4/4
K:F
V:1 treble 
V:2 treble 
V:3 bass 
V:4 bass 
V:1
 [CF]4 [EG]2 [FA]2 | [FB]4 [FA]4 | [EG]2 [DF]2 [DF]2 [CE]2 | [CF]8 | [FA]4 [FB]2 [Fc]2 | %5
 [Fd]4 [Fc]4 | [EB]2 [FA]2 [DG]2 [DF]2 | [EG]8 | [Cc]4 [Cc]2 [EB]2 | [FA]4 G4 | %10
 [FA]2 [Gc]2 [Gc]2 [G=B]2 | [Ec]8 | [FA]4 [EG]2 [DF]2 | [^CE]2 [DF]2 [DG]2 [GB]2 | [FA]4 [EG]4 x2 | %15
 F8 |] %16
V:2
 x8 | x8 | x8 | x8 | x8 | x8 | x8 | x8 | x8 | x4 G4 | x8 | x8 | x8 | x8 | x10 | F8 |] %16
V:3
 [F,A,]4 [C,C]2 [F,C]2 | [B,,D]4 [F,C]4 | [C,C]2 [D,A,]2 [B,,B,]2 [C,G,]2 | [F,,A,]8 | %4
 [F,C]4 [D,B,]2 [C,A,]2 | [B,,B,]4 [F,A,]4 | [G,B,]2 [F,C]2 [B,,B,]2 [D,A,]2 | [C,C]8 | %8
 [A,,F,]4 [A,,F,]2 [C,G,]2 | [F,A,]4 [E,C]4 | [F,C]2 [E,C]2 [G,D]2 [G,,D]2 | [C,C]8 | %12
 z2 C2 [C,C]2 [D,A,]2 | [A,,A,]2 [D,A,]2 [B,,B,]2 [G,,D]2 | C,4 z2 B,2 x2 | [F,,A,]8 |] %16
V:4
 x8 | x8 | x8 | x8 | x8 | x8 | x8 | x8 | x8 | x8 | x8 | x8 | F,4 x4 | x8 | C6 C,4 | x8 |] %16

